assets/images/arrow_rt.svg

<svg width="19" height="19" viewBox="0 0 19 19" fill="none" xmlns="http://www.w3.org/2000/svg">
<path d="M4.43431 12.9197C4.1219 13.2321 4.1219 13.7386 4.43431 14.051C4.74673 14.3635 5.25327 14.3635 5.56569 14.051L4.43431 12.9197ZM14.2853 5.00007C14.2853 4.55824 13.9271 4.20007 13.4853 4.20007L6.28528 4.20007C5.84345 4.20007 5.48528 4.55824 5.48528 5.00007C5.48528 5.4419 5.84345 5.80007 6.28528 5.80007L12.6853 5.80007L12.6853 12.2001C12.6853 12.6419 13.0435 13.0001 13.4853 13.0001C13.9271 13.0001 14.2853 12.6419 14.2853 12.2001L14.2853 5.00007ZM5.56569 14.051L14.051 5.56575L12.9196 4.43438L4.43431 12.9197L5.56569 14.051Z" fill="#0029FF"/>
</svg>

<svg width="19" height="19" fill="none" xmlns="http://www.w3.org/2000/svg"><path d="M4.434 12.92a.8.8 0 101.132 1.131L4.434 12.92zM14.285 5a.8.8 0 00-.8-.8h-7.2a.8.8 0 100 1.6h6.4v6.4a.8.8 0 001.6 0V5zm-8.72 9.051l8.486-8.485-1.131-1.132-8.486 8.486 1.132 1.131z" fill="#0029FF"/></svg>
